X: 92
T: No_52_Dream_of_Buffalo_(a).krn
N: Derived from No_52_Dream_of_Buffalo_(a).krn
%%abc-version 2.0
%%abcx-abcm2ps-target-version 5.9.1 (29 Sep 2008)
%%abc-creator hum2abc beta
%%abcx-conversion-date 2019/03/15 08:35:45
%%humdrum-veritas 3170830378
%%humdrum-veritas-data 263384674
%%linebreak <none>
%%barnumbers 0
L: 1/16
M: 2/4
K: B clef=bass
[K:clef=bass][M:2/4]CCCC C3D [I:setbarnb 2]| 
C2C2C4 | 
B,B,G,G, F,3F, | 
F,2F,2 F,2 z2 | 
G,G,G,G, G,3B, | 
B,2C2B,4 | 
G,G,G,G, F,3G, | 
F,2E,2D,4 | 
C,C,C,C, B,,2 z D, | 
C,2C,2C,4 | 
B,,B,,G,,G,, F,,2G,,2 | 
F,,2F,,2F,,4 :|]  



